src/assets/pause.svg

<?xml version="1.0" encoding="UTF-8" standalone="no"?>
<!DOCTYPE svg PUBLIC "-//W3C//DTD SVG 1.1//EN" "http://www.w3.org/Graphics/SVG/1.1/DTD/svg11.dtd">
<svg width="100%" height="100%" viewBox="0 0 1024 1024" version="1.1" xmlns="http://www.w3.org/2000/svg" xmlns:xlink="http://www.w3.org/1999/xlink" xml:space="preserve" xmlns:serif="http://www.serif.com/" style="fill-rule:evenodd;clip-rule:evenodd;stroke-linejoin:round;stroke-miterlimit:2;">
    <g transform="matrix(0.526989,0,0,0.526989,39.8182,39.8182)">
        <path d="M1664,192L1664,1600C1664,1617.33 1657.67,1632.33 1645,1645C1632.33,1657.67 1617.33,1664 1600,1664L1088,1664C1070.67,1664 1055.67,1657.67 1043,1645C1030.33,1632.33 1024,1617.33 1024,1600L1024,192C1024,174.667 1030.33,159.667 1043,147C1055.67,134.333 1070.67,128 1088,128L1600,128C1617.33,128 1632.33,134.333 1645,147C1657.67,159.667 1664,174.667 1664,192ZM768,192L768,1600C768,1617.33 761.667,1632.33 749,1645C736.333,1657.67 721.333,1664 704,1664L192,1664C174.667,1664 159.667,1657.67 147,1645C134.333,1632.33 128,1617.33 128,1600L128,192C128,174.667 134.333,159.667 147,147C159.667,134.333 174.667,128 192,128L704,128C721.333,128 736.333,134.333 749,147C761.667,159.667 768,174.667 768,192Z" style="fill-rule:nonzero;"/>
    </g>
</svg>

<?xml version="1.0" ?><svg height="1792" viewBox="0 0 1792 1792" width="1792" xmlns="http://www.w3.org/2000/svg"><path d="M1664 192v1408q0 26-19 45t-45 19h-512q-26 0-45-19t-19-45v-1408q0-26 19-45t45-19h512q26 0 45 19t19 45zm-896 0v1408q0 26-19 45t-45 19h-512q-26 0-45-19t-19-45v-1408q0-26 19-45t45-19h512q26 0 45 19t19 45z"/></svg>
